!!!!SEGMENT: pl-wn--mus-57--001-006_sowinski-wojciech--messe-breve-agnus-dei.krn
!!!cenid: 18xx:3577
!!!COM: Sowiński, Wojciech
!!!COM-rismID: pe30008543
!!!CDT: ~1803-1880/03/05
!!!CNT:
!!!OPR: Messe Breve
!!!OTL: Agnus Dei
!!!OMV: 006
!!!PDT: 1872
!!!AGN:
!!!SMS-siglum: PL-Wn
!!!SMS-shelfmark: Mus.57
!!!SMS-shelfwork: 001-006 M
!!!SMS-variant:
!!!SMS-altvar:
!!!NIFC-rismSourceID:
!!!NIFC-rismChildID:
!!!NIFC-islandoraID:
!!!URL-pdf-islandora:
!!!URL-scan: https://polona.pl/item/messe-breve-a-deux-voix-egales-avec-accompagnement-d-orgue-composee-pour-l-eglise-de,NDI0MDY1OTQ/1 @EN{Scan on Polona} @PL{Skany w portalu Polona}
!!!ONB-nifc: UWAGA: części Mszy: 1. Kyrie, 2. Gloria, 3. Credo, 4. Sanctus, 5. Benedictus, 6. Agnus Dei
!!!OMD: Andante
!!!AIN: 1 bass 1 organ 1 tenor
!!!key: B-
**kern	**kern	**dynam	**kern	**text	**dynam	**kern	**text	**dynam
*part3	*part3	*part3	*part2	*part2	*part2	*part1	*part1	*part1
*staff4	*staff3	*	*staff2	*staff2	*	*staff1	*staff1	*
*I"Orgue	*I"Orgue	*	*I"Basse	*	*	*I"Tenor ou Bariton	*	*
*Iorgan	*Iorgan	*	*Ibass	*	*	*Itenor	*	*
*ICklav	*ICklav	*	*ICvox	*	*	*ICvox	*	*
*	*	*	*	*	*	*ITrd8c12	*	*
*clefF4	*clefG2	*	*clefF4	*	*	*clefG2	*	*
*k[b-e-]	*k[b-e-]	*	*k[b-e-]	*	*	*k[b-e-]	*	*
*B-:	*B-:	*	*B-:	*	*	*B-:	*	*
*M2/2	*M2/2	*	*M2/2	*	*	*M2/2	*	*
*met(c|)	*met(c|)	*	*met(c|)	*	*	*met(c|)	*	*
*all\right	*all\right	*	*all\right	*	*	*all\right	*	*
=1	=1	=1	=1	=1	=1	=1	=1	=1
*xywh-23:63,1360,5166,1300	*xywh-23:63,1360,5166,1300	*	*xywh-23:37,852,5201,818	*	*	*xywh-23:2,8,5304,1059	*	*
!	!LO:TX:a:t=Andante con espressione	!LO:DY:b	!	!	!	!LO:TX:a:t=Andante	!	!
4BBB-/ 4BB-	4B-/ 4d 4f	p	1r	.	.	1r	.	.
!	!LO:TX:b:i:t=Sotto voce	!	!	!	!	!	!	!
4BBB-/ 4BB-	4B-/ 4d	.	.	.	.	.	.	.
2r	2r	.	.	.	.	.	.	.
=2	=2	=2	=2	=2	=2	=2	=2	=2
4AAA/ 4AA	4c/ 4f	.	1r	.	.	1r	.	.
4AAA/ 4AA	4c/ 4f	.	.	.	.	.	.	.
4r	4r	.	.	.	.	.	.	.
4FF\ 4F	4A/ 4c 4f	.	.	.	.	.	.	.
=3	=3	=3	=3	=3	=3	=3	=3	=3
*2\right	*	*	*	*	*	*	*	*
2EE-\ 2E-	2.A^/ 2.c 2.g	.	1r	.	.	1r	.	.
4CC/ 4C	.	.	.	.	.	.	.	.
4AAA/ 4AA	4F</ 4c 4f	.	.	.	.	.	.	.
=4	=4	=4	=4	=4	=4	=4	=4	=4
2BBB-/ 2BB-	2B-/ 2d	p	1r	.	.	1r	.	.
2r	2r	.	.	.	.	.	.	.
=5	=5	=5	=5	=5	=5	=5	=5	=5
!	!	!	!	!	!LO:DY:a	!	!	!LO:DY:a:rj
4BBB-/ 4BB-	2r	p	4BB-\	A-	p	4F/	A-	p
4r	.	.	4D\	-gnus	.	4F/	-gnus	.
2r	4B-/ 4d 4f	.	2r	.	.	2r	.	.
.	4B-/ 4d 4f	.	.	.	.	.	.	.
=6	=6	=6	=6	=6	=6	=6	=6	=6
4AAA/ 4AA	2r	.	4AA\	De-	.	4F/	De-	.
4r	.	.	4C\	-i	.	4F/	-i	.
2r	4A/ 4c 4f	.	4r	.	.	4r	.	.
.	4A/ 4c 4f	.	4F\	qui	.	4F/	qui	.
!!LO:LB:g=original
=7	=7	=7	=7	=7	=7	=7	=7	=7
*xywh-23:37,3685,5184,1326	*xywh-23:37,3685,5184,1326	*	*xywh-23:28,3168,5209,783	*	*	*xywh-23:71,2514,5141,783	*	*
*	*	*	*2\right	*	*	*	*	*
2.FF\ 2.C 2.E-	4r	.	(>2.E-\	tol-	.	(>2.G/	tol-	.
.	2A/ 2g	.	.	.	.	.	.	.
4BB-\ 4D	4B-/ 4f	.	4D\)	.	.	4F/)	.	.
=8	=8	=8	=8	=8	=8	=8	=8	=8
4BB-\ 4D	4B-/ 4f	.	4D\	-lis	.	4F/	-lis	.
4r	4d/	.	4r	.	.	4r	.	.
2r	4f/	.	4r	.	.	4r	.	.
.	4d/	.	4F\	pec-	.	4F/	pec-	.
=9	=9	=9	=9	=9	=9	=9	=9	=9
*	*	*^	*	*	*	*	*	*
!	!	!	!LO:HP:b	!	!	!	!	!	!
(>4GG\ 4G	(>4d/ 4b-	<	<	4G\	-ca-	.	4B-\	-ca-	.
4DD\ 4D	4c/ 4f#X 4a	[	[	4D\	-ta	.	4A\	-ta	.
!	!	!	!LO:HP:b	!	!	!	!	!	!
4EE-\ 4E-	4B-/ 4e- 4g	.	>	4E-\	mun-	.	4G\	mun-	.
4CC\) 4C	4c/) 4e- 4a	.	]	4C\	-di	.	4A\	-di	.
*	*	*v	*v	*	*	*	*	*	*
=10	=10	=10	=10	=10	=10	=10	=10	=10
2.DD\ 2.D	(>8A/L 8f#X	.	2.D^>\	mi-	.	2.F#X^>/	mi-	.
.	8d/	.	.	.	.	.	.	.
.	8f#/	.	.	.	.	.	.	.
.	8a/J)	.	.	.	.	.	.	.
.	4dd\	.	.	.	.	.	.	.
(>8E-^>\L	4r	.	4D\	-se-	.	4A/	-se-	.
8D\J	.	.	.	.	.	.	.	.
=11	=11	=11	=11	=11	=11	=11	=11	=11
*	*	*	*	*	*	*2\right	*	*
[>2D\)	8r	.	2.D\	-re-	.	2.d\	-re-	.
.	(>8d/L	.	.	.	.	.	.	.
.	8fn/	.	.	.	.	.	.	.
.	8a/J	.	.	.	.	.	.	.
4D\]	4dd\)	.	.	.	.	.	.	.
(>8E-^\L	4r	.	4D\	-re	.	4d\	-re	.
8D\J)	.	.	.	.	.	.	.	.
=12	=12	=12	=12	=12	=12	=12	=12	=12
!	!	!LO:HP:a	!	!	!LO:HP:a	!	!	!LO:HP:a
2..FF\ 2..C	8r	>	(>2..F\	no-	>	(>2..c\	no-	>
.	(>8f\L	]	.	.	.	.	.	.
.	8a\	>	.	.	.	.	.	.
.	8cc\J	.	.	.	.	.	.	.
.	4ee-\)	.	.	.	.	.	.	.
.	4r	]	.	.	.	.	.	.
8BBB-/ 8BB-	.	.	8D\)	.	]]	8B-\)	.	]]
=13	=13	=13	=13	=13	=13	=13	=13	=13
*	*^	*	*	*	*	*	*	*
2.BBB-/ 2.BB-	4b-/ 4dd	4d\ 4f	p	4D\	-bis	.	4B-\	-bis	.
.	4B-/ 4d 4f	2.ryy	.	4r	.	.	4r	.	.
!	!	!	!	!	!	!LO:DY:a	!	!	!LO:DY:a
.	4B-/ 4d 4f	.	.	4BB-\	A-	p	4F/	A-	p
4BBB-/ 4BB-	4r	.	.	4D\	-gnus	.	4F/	-gnus	.
*	*v	*v	*	*	*	*	*	*	*
!!LO:LB:g=original
=14	=14	=14	=14	=14	=14	=14	=14	=14
*xywh-23:20,5958,5149,1326	*xywh-23:20,5958,5149,1326	*	*xywh-23:28,5399,5209,731	*	*	*xywh-23:63,4804,5192,740	*	*
2FFF/ 2FF	4r	.	2r	.	.	2r	.	.
.	4A/ 4c 4f	.	.	.	.	.	.	.
4AAA/ 4AA	4A/ 4c 4f	.	4AA/	De-	.	4F/	De-	.
4CC/ 4C	4r	.	4C/	-i	.	4F/	-i	.
=15	=15	=15	=15	=15	=15	=15	=15	=15
2.FF\ 2.F	4r	.	4r	.	.	4r	.	.
!	!	!	!	!	!LO:HP:a	!	!	!LO:HP:a
.	2f/ 2a	.	4F\	qui	<	4F/	qui	<
.	.	.	(>4E-\	tol-	.	(>4G/	tol-	.
4FF\ 4F	4e-/ 4a	.	4C\)	.	[[	4A/)	.	[
=16	=16	=16	=16	=16	=16	=16	=16	=16
!	!	!	!	!	!LO:HP:a	!	!	!LO:HP:a
4BB-\ 4F	(>4d/ 4b-	.	2BB-/	-lis	>	2B-\	-lis	>
4r	8f/L	.	.	.	.	.	.	.
.	8b-/J	.	.	.	.	.	.	.
4r	4dd\)	.	4r	.	]	2r	.	]
!	!	!	!	!	!LO:DY:a	!	!	!
4BBB-/ 4BB-	4r	.	4BB-\	pec-	f	.	.	.
=17	=17	=17	=17	=17	=17	=17	=17	=17
2BBB-/ 2BB-	2r	f	(>2BB-\	-ca-	.	2r	.	.
4CC/ 4C	4r	.	4C\)	.	.	4r	.	.
!	!	!	!	!	!	!	!	!LO:DY:a
4DD/ 4D	4A/ 4f	.	4D\	-ta	.	4F/	pec-	f
=18	=18	=18	=18	=18	=18	=18	=18	=18
2.EE-\ 2.E-	2G/ 2g	sf	(>2.E-\	mun-	.	(>2G\	-ca-	.
.	4A/ 4a	.	.	.	.	4A\)	.	.
4DD\ 4D	4B-/ 4b-	.	4D\)	.	.	4B-\	-ta	.
=19	=19	=19	=19	=19	=19	=19	=19	=19
*	*^	*	*	*	*	*	*	*
!	!	!	!	!	!	!	!	!	!LO:HP:a
2CC\ 2C	2a/	4a\	.	(>2C\	-di	.	2A\	mun-	<
*	*	*2\right	*	*	*	*	*	*	*
.	.	[>2.f\	.	.	.	.	.	.	.
4DD\ 4D	4ff/	.	.	4D\)	.	.	4B-\	.	.
4EE-\ 4E-	4ee-/	.	.	4E-\	mun-	.	4c\	-di	[
=20	=20	=20	=20	=20	=20	=20	=20	=20	=20
!	!	!	!	!	!	!	!	!	!LO:HP:a
2.FF\ 2.F	4dd/	1f]	.	(>2.F\	-di	.	2B-\	mun-	>
.	4b-/	.	.	.	.	.	.	.	.
.	4a/	.	.	.	.	.	2A\	-di	]
4EE-\ 4E-	4cc/	.	.	4E-\)	.	.	.	.	.
!!LO:PB:g=original
=21	=21	=21	=21	=21	=21	=21	=21	=21	=21
*xywh-24:29,1450,5227,1193	*xywh-24:29,1450,5227,1193	*xywh-24:29,1450,5227,1193	*	*xywh-24:89,806,5193,721	*	*	*xywh-24:106,25,5184,944	*	*
!	!	!	!	!	!	!LO:DY:a:rj	!	!	!LO:DY:a
1DD 1D	4b-/	4r	f	1D	mi-	p	(>2B-\	mi-	p
.	4b-/	2.B-\	.	.	.	.	.	.	.
.	4a/	.	.	.	.	.	4A\)	.	.
.	[>4b-/	.	.	.	.	.	4B-\	-se-	.
=22	=22	=22	=22	=22	=22	=22	=22	=22	=22
!	!	!	!	!	!	!	!	!	!LO:HP:a:t=cres
1EE- 1E-	4b-/]	4ryy	.	1E-	-se-	.	(>2B-\	-re-	<
.	4b-/	2.B-\	.	.	.	.	.	.	.
.	4a/	.	.	.	.	.	4A\)	.	.
.	[>4b-/	.	.	.	.	.	4B-\	-re	.
=23	=23	=23	=23	=23	=23	=23	=23	=23	=23
1EEn 1En	4b-/]	4ryy	.	1En	-re-	.	(>2B-\	no-	.
.	(>4b-/	2.B-\ 2.g	.	.	.	.	.	.	.
.	4cc/	.	.	.	.	.	4c\	.	.
.	4b-/)	.	.	.	.	.	4B-\)	.	.
=24	=24	=24	=24	=24	=24	=24	=24	=24	=24
2FF\ 2F	4a/	4A\ 4f	.	2F\	-re	.	2A/	-bis	.
.	(>4f/	4f\	p	.	.	.	.	.	.
2r	4g/	4en\	.	2r	.	.	2r	.	.
.	4a/	4e-X\	.	.	.	.	.	.	.
=25	=25	=25	=25	=25	=25	=25	=25	=25	=25
4BBB-/ 4BB-	(>2b-/)	2.d\	.	1r	.	.	2B-\	A-	.
4r	.	.	.	.	.	.	.	.	.
2r	4an/	.	.	.	.	.	(>4c\	-gnus	.
.	4a-X/)	4f\	.	.	.	.	4d\)	.	.
=26	=26	=26	=26	=26	=26	=26	=26	=26	=26
2.EE-\ 2.E-	2g/	2e-\	<	2.E-^>\	No-	.	2G/	De-	.
.	4an/	4c\	.	.	.	.	(>4A/	-i	.
4DD\ 4D	4g/ 4bn	4f\	[[	4D\	.	.	4Bn/)	.	.
*	*v	*v	*	*	*	*	*	*	*
=27	=27	=27	=27	=27	=27	=27	=27	=27
2CC\ 2C	2e-^>\ 2g 2cc	.	2C\	-bis	.	2c\	qui	.
2r	4d^^>\ 4dd	.	2r	.	.	(>4d\	tol-	.
.	4e-^^>\ 4ee-	.	.	.	.	4e-\)	.	.
!!LO:LB:g=original
=28	=28	=28	=28	=28	=28	=28	=28	=28
*xywh-24:63,3699,5210,1210	*xywh-24:63,3699,5210,1210	*	*xywh-24:29,3115,5287,669	*	*	*xywh-24:38,2523,5253,729	*	*
!	!	!	!	!	!	!	!	!LO:HP:a:t=cres
2.FF\ 2.F	4e-\ 4cc	.	2.F\	A-	.	2A\	-lis	<
.	4a^^>\	.	.	.	.	.	.	.
.	4g^^>\	.	.	.	.	2c\	qui	.
4EE-X\ 4E-X	4f^^>\	.	4E-\	-gnus	.	.	.	.
=29	=29	=29	=29	=29	=29	=29	=29	=29
!	!	!	!	!	!LO:DY:a	!	!	!LO:DY:a
4DD\ 4D	4f\ 4b- 4ff	f	(>4D\	de-	f	(>4f\	tol-	f
4AA\ 4A	4f\ 4cc 4ee-	.	4A\)	.	.	4e-\)	.	.
4BB-\ 4B-	4f\ 4b- 4dd	.	4B-\	-i	.	4d\	-lis	.
4FF#X\ 4F#X	4d\ 4a 4cc	.	4F#X\	qui	.	4c\	pec-	.
=30	=30	=30	=30	=30	=30	=30	=30	=30
4GG\ 4G	4d\ 4g 4b-	.	4G\	tol-	.	(>4B-\	-ca-	.
4DD\ 4D	4c\ 4f#X 4a	.	4D\	.	.	4A\	.	.
!	!	!LO:HP:t=dim	!	!	!	!	!	!LO:HP:a:t=dim.
4EE-\ 4E-	4B-\ 4e- 4g	>	4E-\	-lis	.	4G\)	.	>
4CC\ 4C	4c\ 4cc	.	4C\	pec-	.	4c\	-ta	.
=31	=31	=31	=31	=31	=31	=31	=31	=31
*	*^	*	*	*	*	*	*	*
1FF 1F	1a	2c\ 2e-	sf	1F	-ca-	.	1A	mun-	.
.	.	4fn\	.	.	.	.	.	.	.
.	.	4e-\	.	.	.	.	.	.	.
=32	=32	=32	=32	=32	=32	=32	=32	=32	=32
*	*	*^	*	*	*	*	*	*	*
2BB-\ 2B-	2b-/	8r	2d\	.	2BB-/	-ta	.	2B-\	-di	.
.	.	(>8f/L	.	.	.	.	.	.	.	.
.	.	8en/	.	p	.	.	.	.	.	.
.	.	8f/J	.	.	.	.	.	.	.	.
2r	2ryy	8g/L	2ryy	.	2r	.	.	2r	.	.
.	.	8f/	.	.	.	.	.	.	.	.
.	.	8e/	.	.	.	.	.	.	.	.
.	.	8f/J)	.	.	.	.	.	.	.	.
*	*	*v	*v	*	*	*	*	*	*	*
=33	=33	=33	=33	=33	=33	=33	=33	=33	=33
!	!	!	!	!	!	!	!	!	!LO:DY:a
2BBB-/ 2BB-	2b-^>/	[>1d [>1f	.	1r	.	.	2B-\	qui	f
2r	4cc/	.	.	.	.	.	(>4c\	tol-	.
.	4dd/	.	.	.	.	.	4d\)	.	.
=34	=34	=34	=34	=34	=34	=34	=34	=34	=34
!	!	!	!	!	!	!LO:DY:a	!	!	!
4r	2.g/	2.d\] 2.f]	.	(2G\	mun-	f	2G\	-lis	.
4GG\ 4G	.	.	.	.	.	.	.	.	.
4AA\ 4A	.	.	.	4A\	.	.	2r	.	.
4BBn\ 4Bn	4g/	4d\ 4f	.	4Bn\)	.	.	.	.	.
!!LO:LB:g=original
=35	=35	=35	=35	=35	=35	=35	=35	=35	=35
*^	*	*	*	*	*	*	*	*	*
*xywh-24:21,5888,5253,1433	*xywh-24:21,5888,5253,1433	*xywh-24:21,5888,5253,1433	*xywh-24:21,5888,5253,1433	*	*xywh-24:46,5399,5219,618	*	*	*xywh-24:46,4781,5236,763	*	*
2c/	2.C\	2cc/	1e- 1g	.	4C\ 4c	-di	.	2c\	qui	.
.	.	.	.	.	4E-\	qui	.	.	.	.
4Bn/	.	4dd/	.	.	4D\	tol-	.	(>4d\	tol-	.
4c/	4C\	4ee-/	.	.	4C\	.	.	4e-\)	.	.
=36	=36	=36	=36	=36	=36	=36	=36	=36	=36	=36
1c	2.F\	4a/	4f\	.	2.F\	-lis	.	4A\	-lis	.
.	.	4cc/	2.f\ 2.a	<	.	.	.	4c\	pec-	.
.	.	4dd/	.	.	.	.	.	4d\	-ca-	.
.	4E-\	4ee-/	.	[[	4E-\	pec-	.	4e-\	-ta	.
*v	*v	*	*	*	*	*	*	*	*	*
=37	=37	=37	=37	=37	=37	=37	=37	=37	=37
2.D\ 2.d	4ff/	2f\ 2b-	f	2.D^^>\	-ca-	.	2.f^^>\	mun-	.
.	8dd/L	.	.	.	.	.	.	.	.
.	8b-/J	.	.	.	.	.	.	.	.
.	4f/	4ryy	.	.	.	.	.	.	.
4C^^>\ 4c	4ee-/	[>4f\ 4a	.	4C\	-ta	.	4e-\	-di	.
=38	=38	=38	=38	=38	=38	=38	=38	=38	=38
4BB-^^>\ 4B-	4dd^^>/	4f\] 4b-	.	4BB-\	mi-	.	4d\	mi-	.
4FF#X^^>\ 4F#X	4cc^^>/	[>4d\ 4a	.	4F#X\	-se-	.	4c\	-se-	.
4GG^^>\ 4G	4b-^^>/	4d\] 4g	.	4G\	-re-	.	4B-\	-re-	.
!LO:SIC:v:n=1:s=4En	!	!	!	!	!	!	!	!	!
!LO:SIC:v:n=2:s=4EEn^^>\	!	!	!	!	!	!	!	!	!
4EE-^^>\ 4E-	4cc^^>/	[>4c\ 4g	.	4En\	-re	.	4c\	-re	.
=39	=39	=39	=39	=39	=39	=39	=39	=39	=39
*	*	*^	*	*	*	*	*	*	*
1FFn 1Fn	1a	2f\	1c]	f	(>2F\	no-	.	1A	no-	.
.	.	2e-X^>\	.	.	2E-X\)	.	.	.	.	.
*	*	*v	*v	*	*	*	*	*	*	*
=40	=40	=40	=40	=40	=40	=40	=40	=40	=40
2BBB-/ 2BB-	2b-/	2d\	.	2D\	-bis	.	2B-\	-bis	.
2r	2r	2ryy	.	2r	.	.	2r	.	.
*	*v	*v	*	*	*	*	*	*	*
=41	=41	=41	=41	=41	=41	=41	=41	=41
4BBB-/ 4BB-	4B-/ 4d 4f	p	1r	.	.	1r	.	.
4BBB-/ 4BB-	4B-/ 4d 4f	.	.	.	.	.	.	.
2r	2r	.	.	.	.	.	.	.
!!LO:PB:g=original
=42	=42	=42	=42	=42	=42	=42	=42	=42
*xywh-25:6,1474,5262,1213	*xywh-25:6,1474,5262,1213	*	*xywh-25:32,945,5219,702	*	*	*xywh-25:6,61,5340,910	*	*
4AAA/ 4AA	4c/ 4f	p	1r	.	.	1r	.	.
4AAA/ 4AA	4c/ 4f	.	.	.	.	.	.	.
2r	2r	.	.	.	.	.	.	.
=43	=43	=43	=43	=43	=43	=43	=43	=43
*	*^	*	*	*	*	*	*	*
2.EE-\ 2.E-	2.A^/ 2.c 2.g	2.ryy	.	2.E-\	A-	.	2.G/	Ag-	.
4DD\ 4D	4f/	8B-\L	.	4F\	-gnus	.	4F/	-nus	.
.	.	8A\J	.	.	.	.	.	.	.
=44	=44	=44	=44	=44	=44	=44	=44	=44	=44
2.EE-^>\ 2.E-	4g/	4G\	<	2E-\	De-	.	4G/	De-	.
.	4a/	4A\	.	.	.	.	4A/	.	.
.	4b-/	4B-\	.	4E-\	-i	.	4B-/	-i	.
4EE-\ 4E-	4cc/	4c\	[[	4E-\	qui	.	4c\	qui	.
=45	=45	=45	=45	=45	=45	=45	=45	=45	=45
!	!	!	!	!	!	!	!	!	!LO:DY:a
2DD\ 2D	1dd	1d	f	(>2D\	tol-	.	1d	tol-	f
4EEn\ 4En	.	.	.	4En\	.	.	.	.	.
4FF#X\ 4F#X	.	.	.	4F#X\)	.	.	.	.	.
*	*v	*v	*	*	*	*	*	*	*
=46	=46	=46	=46	=46	=46	=46	=46	=46
2GG\ 2G	4d\ 4dd	.	(>2G\	-lis	.	2.d\	-lis	.
.	8.d\L 8.dd	<	.	.	.	.	.	.
.	16d\Jk 16dd	.	.	.	.	.	.	.
4BB-\ 4B-	[>2d\ [>2dd	.	4B-\)	.	.	.	.	.
4GG\ 4G	.	[[	4G\	pec-	.	4d\	pec-	.
=47	=47	=47	=47	=47	=47	=47	=47	=47
2FF#X\ 2F#X	4d\] 4dd]	f	(>2F#X\	-ca-	.	[>1d	-ca-	.
.	4d\ 4dd	.	.	.	.	.	.	.
2DD\ 2D	4d\ 4dd	.	2D\)	.	.	.	.	.
.	[>4d\ [>4dd	.	.	.	.	.	.	.
=48	=48	=48	=48	=48	=48	=48	=48	=48
*	*^	*	*	*	*	*	*	*
!	!	!	!	!	!	!	!	!	!LO:HP:a
4DD\ 4D	(>4d\] 4dd]	4ryy	.	4D\	.	.	4d\]	.	>
2EE-\ 2E-	4cc/	2c\	>	4E-\	-ta	.	4c\	-ta	.
.	4g/)	.	.	4E-\	mun-	.	4G\	mun-	.
4FFn\ 4Fn	4a/	(>8f\L	]	4Fn\	-di	.	4A\	-di	]
.	.	8e-\J)	p	.	.	.	.	.	.
*	*v	*v	*	*	*	*	*	*	*
=49	=49	=49	=49	=49	=49	=49	=49	=49
4BB-'>\ 4F	4d'</ 4b-	.	4BB-/	do-	.	4F/	Do-	.
4BB-'>\ 4B-	4d'</ 4f	.	4BB-/	-na	.	4F/	-na	.
4r	4r	.	2r	.	.	2r	.	.
(>4BB-\ (>4B-	(>4d/ [4f	.	.	.	.	.	.	.
!!LO:LB:g=original
=50	=50	=50	=50	=50	=50	=50	=50	=50
*xywh-25:6,3728,5323,1274	*xywh-25:6,3728,5323,1274	*	*xywh-25:-12,3156,5314,684	*	*	*xywh-25:-3,2601,5236,684	*	*
!LO:TX:t=P:problem=brak zakończeń łuków	!LO:TX:t=P:problem=brak zakończeń łuków	!	!	!	!LO:DY:a:rj	!	!	!LO:DY:a:rj
4AA'\) 4A)	4c'/) 4f]	p	4A\	no-	p	4c\	no-	p
4AA'\ 4A	4c'/ 4f	.	4A\	-bis	.	4c\	-bis	.
4r	4ryy	.	2r	.	.	2r	.	.
4AA\ 4A	4c/ 4f	.	.	.	.	.	.	.
=51	=51	=51	=51	=51	=51	=51	=51	=51
4AA-X\ 4A-X	4d/ 4f	.	4A-X\	do-	.	4d\	do-	.
4AA-\ 4A-	4d/ 4f	.	4A-\	-na	.	4d\	-na	.
4r	4r	.	2r	.	.	2r	.	.
4AA-\ 4A-	4d/ 4b-	.	.	.	.	.	.	.
=52	=52	=52	=52	=52	=52	=52	=52	=52
*	*^	*	*	*	*	*	*	*
!	!	!	!	!	!	!LO:DY:a:rj	!	!	!LO:DY:a:rj
2.GG/ 2.G	1b-	2.e-\	sf	[>2G\	pa-	f	2.e-\	pa-	f
.	.	.	.	4G\]	.	.	.	.	.
4GG-X/ 4G-X	.	4en\	.	4G-X\	-cem	.	4en\	-cem	.
=53	=53	=53	=53	=53	=53	=53	=53	=53	=53
!	!	!	!LO:DY:b:rj	!	!	!	!	!	!
2FF\ 2F	(>4f/	[>2d\ [>2f	p <	2.F\	do-	.	(>4f\	do-	.
.	4dd/	.	.	.	.	.	4d\	.	.
2FF\ 2F	4cc/	2d\] 2f]	[ >	.	.	.	4c\)	.	.
.	4b-/)	.	.	4F\	-na	.	4B-\	-na	.
=54	=54	=54	=54	=54	=54	=54	=54	=54	=54
!	!	!	!LO:HP:a	!	!	!	!	!	!
1FF 1F	(>4b-/	2.c\ 2.e-X	] sf >	2.F\	no-	.	(>4B-\	no-	.
.	4a/	.	]	.	.	.	4A\	.	.
.	4g/	.	.	.	.	.	4G\)	.	.
.	4a/)	4c\ 4e-	.	4F\	-bis	.	4A\	-bis	.
=55	=55	=55	=55	=55	=55	=55	=55	=55	=55
!	!	!	!LO:HP:b:t=dim.	!	!	!	!	!	!
2.FF\ 2.F	4a/	4c\ 4e-	>	1F	pa-	.	1c	pa-	.
.	4ff/	2.f\ 2.a	.	.	.	.	.	.	.
.	4ee-/	.	.	.	.	.	.	.	.
4EE-\ 4E-	4cc/	.	.	.	.	.	.	.	.
*	*v	*v	*	*	*	*	*	*	*
=56	=56	=56	=56	=56	=56	=56	=56	=56
1DD;> 1D	1d;> 1f 1b-	.	1BB-;>	-cem	.	1B-;>	-cem	.
!!LO:LB:g=original
=57||	=57||	=57||	=57||	=57||	=57||	=57||	=57||	=57||
*M2/4	*M2/4	*	*M2/4	*	*	*M2/4	*	*
*xywh-25:23,5948,5288,1361	*xywh-25:23,5948,5288,1361	*	*xywh-25:49,5471,5167,624	*	*	*xywh-25:49,4734,5262,797	*	*
!	!LO:TX:a:t=Risoluto	!	!	!	!LO:DY:a:rj	!LO:TX:a:i:t=Risoluto	!	!
4BB-\ 4B-	4b-\	f	(>4B-\	Do-	f	2r	.	.
8F^^>\L	8f^^</L	.	8F\)	.	.	.	.	.
8E-^^>\J	8e-^^</J	.	8E-\	-na	.	.	.	.
=58	=58	=58	=58	=58	=58	=58	=58	=58
16D\LL	16d/LL	.	(>16D\LL	no-	.	2r	.	.
16E-\	16e-/	.	16E-\	.	.	.	.	.
16F\	16f/	.	16F\	.	.	.	.	.
16D\JJ	16d/JJ	.	16D\JJ)	.	.	.	.	.
4BB-^^>\	4B-^^</	.	4BB-/	-bis	.	.	.	.
=59	=59	=59	=59	=59	=59	=59	=59	=59
2BBB-/ 2BB-	8r	.	4BB-\	pa-	.	2r	.	.
.	8B-/L	<	.	.	.	.	.	.
.	8d/	.	8D\L	.	.	.	.	.
.	8e-/J	.	8E-\J	.	.	.	.	.
=60	=60	=60	=60	=60	=60	=60	=60	=60
4AAA/ 4AA	8f/L	.	4F\	-cem	.	2r	.	.
.	16f/L	.	.	.	.	.	.	.
.	16g/JJ	.	.	.	.	.	.	.
[>4FF\ 4F	8a/L	[	4r	.	.	.	.	.
.	8f/J	.	.	.	.	.	.	.
=61	=61	=61	=61	=61	=61	=61	=61	=61
*^	*	*	*	*	*	*	*	*
!	!	!	!	!	!	!LO:DY:a	!	!	!LO:DY:a
4F/	2FF\_>	(>8a\L 8ff	p	4F\	Do-	p	2A\	Do-	p
.	.	8f\J)	.	.	.	.	.	.	.
4E-/	.	8r	.	8E-\	.	.	.	.	.
.	.	8f\	.	8C\	-na	.	.	.	.
=62	=62	=62	=62	=62	=62	=62	=62	=62	=62
4D/	4FF\]	(>8b-\L	.	4BB-\	no-	.	2B-\	-na	.
.	.	8f\	.	.	.	.	.	.	.
4BB-/	4BB-\	8dd\	.	4D\	-bis	.	.	.	.
.	.	8f\J)	.	.	.	.	.	.	.
*v	*v	*	*	*	*	*	*	*	*
=63	=63	=63	=63	=63	=63	=63	=63	=63
2C/	(>8cc\L	.	(>4C\	pa-	.	4c\	no-	.
.	8en\	.	.	.	.	.	.	.
.	8g\) 8cc	.	4En\)	.	.	4B-\	.	.
.	8b-\J	.	.	.	.	.	.	.
=64	=64	=64	=64	=64	=64	=64	=64	=64
*	*^	*	*	*	*	*	*	*
4F\	8a\L	4ryy	.	4F\	-cem	.	4A\	-bis	.
.	8f\J	.	.	.	.	.	.	.	.
4DD^^>\ 4D	4bn/	8g\L	.	4r	.	.	4r	.	.
.	.	8f\J	.	.	.	.	.	.	.
*	*v	*v	*	*	*	*	*	*	*
=65	=65	=65	=65	=65	=65	=65	=65	=65
!	!	!	!	!	!	!	!	!LO:DY:a
4CC\ 4C	4e-\ 4cc	f	2r	.	.	4c\	Do-	f
8GG^^>\L 8G	8g^^</L	.	.	.	.	8G/	.	.
8FF^^>\J 8F	8f^^</J	.	.	.	.	8F/	-na	.
=66	=66	=66	=66	=66	=66	=66	=66	=66
16E-\LL	16e-/LL	.	2r	.	.	(>16E-/LL	no-	.
16F\	16f/	.	.	.	.	16F/	.	.
16G\	16g/	.	.	.	.	16G/	.	.
!	!	!	!	!	!	!LO:TX:t=P:problem=zbędna kreska taktowa	!	!
16E-\JJ	16e-/JJ	.	.	.	.	16E-/JJ)	.	.
4C^^>\	8c^^>/L	.	.	.	.	4C/	-bis	.
.	8c/J	.	.	.	.	.	.	.
!!LO:PB:g=original
=67	=67	=67	=67	=67	=67	=67	=67	=67
*	*^	*	*	*	*	*	*	*
*xywh-26:14,1398,5317,1208	*xywh-26:14,1398,5317,1208	*xywh-26:14,1398,5317,1208	*	*xywh-26:100,837,5248,690	*	*	*xywh-26:66,34,5291,915	*	*
8r	4.cc/	[>2c\	.	2r	.	.	(>4C/	pa-	.
8CC\L 8C	.	.	.	.	.	.	.	.	.
8DD\ 8D	.	.	.	.	.	.	8D/L	.	.
8EEn\J 8En	8b-/	.	.	.	.	.	8En/J)	.	.
=68	=68	=68	=68	=68	=68	=68	=68	=68	=68
4.FF\ 4.F	8a/L	4c\]	.	2r	.	.	4F/	-cem	.
.	16f/L	.	.	.	.	.	.	.	.
.	16a/JJ	.	.	.	.	.	.	.	.
.	8cc\L	4ryy	.	.	.	.	4r	.	.
8C\	8a\J	.	.	.	.	.	.	.	.
=69	=69	=69	=69	=69	=69	=69	=69	=69	=69
*^	*	*	*	*	*	*	*	*	*
!	!	!	!	!LO:DY:b:rj	!	!	!LO:DY:a	!	!	!LO:DY:a
(>4F/	[>2FF\	[>2ff/	4f\	p	4F\	do-	p	4F/	Do-	p
4E-X/	.	.	8g\L	.	4E-\	-na	.	8G/L	.	.
.	.	.	8a\J	.	.	.	.	8A/J	-na	.
=70	=70	=70	=70	=70	=70	=70	=70	=70	=70	=70
4D/)	2FF\]	2ff/]	4b-\	.	(>4D\	no-	.	4B-\	no-	.
4BB-/	.	.	8a\L	.	8C\)	.	.	8A\L	.	.
.	.	.	8b-\J	.	8D\	-bis	.	8B-\J	-bis	.
*v	*v	*	*	*	*	*	*	*	*	*
=71	=71	=71	=71	=71	=71	=71	=71	=71	=71
2FF\ [>2F	4dd/	8dd\L	.	(>4F^>\	pa-	.	(>4d^>\	pa-	.
.	.	8f\	.	.	.	.	.	.	.
.	4ff/	8a\	.	4E-\)	.	.	4c\)	.	.
.	.	8f\J	.	.	.	.	.	.	.
=72	=72	=72	=72	=72	=72	=72	=72	=72	=72
4BB-\ 4F]	8b-/	8b-\L	.	4D\	-cem	.	4B-\	-cem	.
.	4.ryy	(>16b-\L	.	.	.	.	.	.	.
.	.	16a\JJ	.	.	.	.	.	.	.
4r	.	8cc\L)	.	4r	.	.	4r	.	.
.	.	8b-\J	.	.	.	.	.	.	.
*	*v	*v	*	*	*	*	*	*	*
=73	=73	=73	=73	=73	=73	=73	=73	=73
!	!	!	!	!	!	!	!	!LO:HP:a
(>8DD/L	2B-/ 2b-	mf	2r	.	.	(>8D/L	Do-	<
8FF/	.	.	.	.	.	8F/J	.	.
8C/	.	.	.	.	.	8c\L	.	.
8BB-/J)	.	.	.	.	.	8B-\J)	.	[[
=74	=74	=74	=74	=74	=74	=74	=74	=74
*^	*	*	*	*	*	*	*	*
!	!	!	!	!	!	!LO:HP:a	!	!	!LO:HP:a
(>8C/L	2FF\	8A/L 8a	.	(>8C\L	Do-	<	2A\	-na	>]
8E-/	.	16g-X/L	.	8E-\	.	.	.	.	.
.	.	16f/JJ	.	.	.	.	.	.	.
!	!	!	!	!	!	!LO:HP:a	!	!	!
8F/	.	4cc^>\	.	8F\	.	[ >	.	.	.
8E-/J)	.	.	.	8E-\J)	.	.	.	.	.
*v	*v	*	*	*	*	*	*	*	*
=75	=75	=75	=75	=75	=75	=75	=75	=75
!	!	!	!	!	!	!	!	!LO:HP:a
2BB-\ 2D	(>8b-\L	.	(>4.D\	-na	]	(8B-\L	no-	<
.	8f\	.	.	.	.	8F\	.	[
!	!	!	!	!	!	!	!	!LO:HP:a
.	8cc\	.	.	.	.	8c\	.	>
.	8b-\J)	.	8BB-\)	.	.	8B-\J)	.	]]
=76	=76	=76	=76	=76	=76	=76	=76	=76
*	*^	*	*	*	*	*	*	*
!	!	!	!	!	!	!LO:HP:a	!	!	!
8FF\L 8C	8ryy	8f\ 8a	<	(>8C\L	no-	<	2A\	-bis	.
8FF\ 8F	4ff/	4.f\ 4.a	.	8F\	.	.	.	.	.
!	!	!	!	!	!	!LO:HP:a	!	!	!
8EE-\ 8E-	.	.	.	8E-\	.	[ >	.	.	.
8CC\J 8C	8ee-/	.	[[	8C\J)	-bis	]]	.	.	.
*	*v	*v	*	*	*	*	*	*	*
!!LO:LB:g=original
=77	=77	=77	=77	=77	=77	=77	=77	=77
*xywh-26:57,3660,5222,1225	*xywh-26:57,3660,5222,1225	*	*xywh-26:49,2978,5291,863	*	*	*xywh-26:40,2503,5222,707	*	*
!	!	!	!	!	!LO:HP:a	!	!	!LO:HP:a
4.BBB-/ 4.BB-	4.d\ 4.f 4.dd	f	4.BB-\	Do-	<	4.d\	Do-	>
8FF#X^^>\ 8F#X	8d^^>\ 8a 8cc	.	8F#X\	-na	[[	8c\	-na	]
=78	=78	=78	=78	=78	=78	=78	=78	=78
8GG\L 8G	8d^^>\L 8g 8b-	.	(>8G\L	no-	.	(>8B-\L	no-	.
8DD\ 8D	8c^^>\ 8f#X 8a	.	8D\J)	.	.	8A\J)	.	.
!	!	!LO:HP:b:t=dim.	!	!	!	!	!	!
8EE-\ 8E-	8B-^^>\ 8e- 8g	>	(>8E-\L	-bis	.	(>8G\L	-bis	.
8CC\J 8C	8c^^>\J 8e- 8cc	.	8C\J)	.	.	8c\J)	.	.
=79	=79	=79	=79	=79	=79	=79	=79	=79
*	*^	*	*	*	*	*	*	*
*	*	*^	*	*	*	*	*	*	*
2FFn\ 2Fn	2a/	4fn\	2c\	>	(>4Fn\	pa-	.	2A^>\	pa-	.
.	.	4e-\	.	]	4E-\	.	.	.	.	.
*	*v	*v	*v	*	*	*	*	*	*	*
=80	=80	=80	=80	=80	=80	=80	=80	=80
4BB-\ 4B-	8b-/L	.	4D\)	-cem	.	4B-\	-cem	.
.	(>16f/L	.	.	.	.	.	.	.
.	16g/JJ	.	.	.	.	.	.	.
4r	8f/L	.	4r	.	.	4r	.	.
.	8d/J)	.	.	.	.	.	.	.
=81	=81	=81	=81	=81	=81	=81	=81	=81
!	!	!	!	!	!LO:HP:a	!	!	!
(>8DD/L	2B-/ 2b-	sf	(>8D\L	Do-	<	2r	.	.
8FF/	.	.	8F\	.	.	.	.	.
!	!	!	!	!	!LO:HP:a	!	!	!
8C/	.	.	8c\	.	[ >	.	.	.
8BB-/J)	.	.	8B-\J)	.	]]	.	.	.
=82	=82	=82	=82	=82	=82	=82	=82	=82
!	!	!	!	!	!	!	!	!LO:HP:a
4AA/	8f/L	.	2A\	-na	.	(>8c\	Do-	<
.	(>8e-/	.	.	.	.	4f\)	.	.
4FF/	8cc/	.	.	.	.	.	.	.
!	!	!	!	!	!	!	!	!LO:DY:a
.	16b-/L	.	.	.	.	8e-\	.	[ >
.	16a/JJ)	.	.	.	.	.	.	.
=83	=83	=83	=83	=83	=83	=83	=83	=83
8BB-\L	2B-/ 2b-	sf	(>8B-\L	no-	.	4.d\	-na	]
8FF\ 8F	.	.	8F\	.	.	.	.	.
8EE-\ 8E-	.	.	8E-\J)	.	.	.	.	.
8DD\J 8D	.	.	8D\	-bis	.	8B-\	no-	.
=84	=84	=84	=84	=84	=84	=84	=84	=84
8CC\L 8C	2A/ 2a	sf	(>8C\L	pa-	.	2A\	-bis	.
8FF\ 8F	.	.	8F\	.	.	.	.	.
8EE-\ 8E-	.	.	8E-\J)	.	.	.	.	.
8CC\J 8C	.	.	8C\	-cem	.	.	.	.
!!LO:LB:g=original
=85	=85	=85	=85	=85	=85	=85	=85	=85
*xywh-26:23,5913,5334,1476	*xywh-26:23,5913,5334,1476	*	*xywh-26:49,5351,5231,725	*	*	*xywh-26:31,4713,5213,742	*	*
!	!	!	!	!	!LO:DY:a	!	!	!LO:DY:a
4BBB-\ 4BB-	8B-/L 8b-	f	(>8BB-\L	do-	f	(>8B-\L	Do-	f
.	8d/J 8f	.	8D\J)	.	.	8F\J)	.	.
4BB-^^>\ 4B-	4d^^>/ 4f	.	4D^^>\	-na	.	4F^>/	-na	.
=86	=86	=86	=86	=86	=86	=86	=86	=86
4AAA\ 4AA	8c\L 8cc	.	(>8AA\L	do-	.	(>8c\L	do-	.
.	8c\J 8e- 8f	.	8F\J)	.	.	8F\J)	.	.
4AA^^>\ 4A	4c^^>/ 4e- 4f	.	4F^^>\	-na	.	4F^>/	-na	.
=87	=87	=87	=87	=87	=87	=87	=87	=87
4BBB-\ 4BB-	8B-/L 8b-	.	(>8BB-\L	no-	.	(>8B-\L	no-	.
.	8d/J 8f	.	8D\J)	.	.	8F\J)	.	.
8BB-^^>\L 8B-	4d^^>/ 4f	.	4D^^>\	-bis	.	4F^>\	-bis	.
8BBB-\J 8BB-	.	.	.	.	.	.	.	.
=88	=88	=88	=88	=88	=88	=88	=88	=88
4AAA\ 4AA	8c/L 8cc	.	(>8AA\L	pa-	.	(>8c\L	pa-	.
.	8c/J 8e- 8f	.	8C\J)	.	.	8F\J)	.	.
8AA\L 8A	4c^^>/ 4e- 4f	.	4F^^>\	-cem	.	4F^>\	-cem	.
8FF\J 8F	.	.	.	.	.	.	.	.
=89	=89	=89	=89	=89	=89	=89	=89	=89
4.BBB-/ 4.BB-	4.d^^>\ 4.f 4.dd	sf	4.BB-\	do-	.	4.B-\	Do-	.
8BB-\ 8B-	8d/ 8f	.	8D\	-na	.	8F/	-na	.
=90	=90	=90	=90	=90	=90	=90	=90	=90
!	!	!LO:HP:b	!	!	!LO:HP:a:t=cres	!	!	!LO:HP:a:t=cres
4BB-\ 4B-	8d/L 8f	<	8D\	do-	<	8F/	do-	<
.	8B-/ 8d	.	8BB-\	-na	.	8D/	-na	.
8FF\L 8F	8d/ 8f	.	8D\	no-	.	8F/	no-	.
8DD\J 8D	8f/J 8b-	[[	8F\	-bis	.	8B-/	-bis	.
=91	=91	=91	=91	=91	=91	=91	=91	=91
!	!	!	!	!	!LO:DY:a	!	!	!LO:DY:a
2BBB-/ 2BB-	2d/ 2f 2dd	.	(>2B-\	pa-	f	2d\	pa-	f
=92	=92	=92	=92	=92	=92	=92	=92	=92
*	*	*	*	*	*	*^	*	*
4GG^^>\ 4G	4b-^^<\ 4ee- 4bb-	.	4G^>\)	.	.	4e-^>/	4B-\	.	.
4EE-^^>\ 4E-	4b-^^<\ 4ee- 4gg 4bb-	.	4E-^>\	-cem	.	4e-^>/	4G\	-cem	.
=93	=93	=93	=93	=93	=93	=93	=93	=93	=93
*	*^	*	*	*	*	*	*	*	*
2BBB-/ 2BB-	2ff/ 2bb- 2ddd	2dd\	sf	[>2BB-/	pa-	.	2d/	[>2B-\	pa-	.
*	*v	*v	*	*	*	*	*v	*v	*	*
=94	=94	=94	=94	=94	=94	=94	=94	=94
.	8qB-/ 8qd 8qf 8qb-	.	.	.	.	.	.	.
!LO:TX:b:i:t=fini le 10 Mars 1872	!	!	!	!	!	!	!	!
2BBB-;>/ 2BB-	2B-;>/ 2d 2f 2b-	.	2BB-;>/]	-cem	.	2B-;>\]	-cem	.
==	==	==	==	==	==	==	==	==
*-	*-	*-	*-	*-	*-	*-	*-	*-
!!!system-decoration: (s1),(s2){(s3,s4)}
!!!RDF**kern: < = below
!!!RDF**kern: > = above
!!!ENC: Berenika Jozajtis
!!!END: 2022-02-05
!!!ENC: Marta Chmielewska
!!!END: 2022-02-14
!!!IIIF: https://polona.pl/iiif/item/NDI0MDY1OTQ/manifest.json
!!!ENC-iiif: Jan Barakat
!!!END-iiif: 2022-08-19
!!!YEC: Copyright 2022 Narodowy Instytut Fryderyka Chopina (https://polishscores.org)
!!!YEM: License CC-BY-4.0 (https://creativecommons.org/licenses/by/4.0)
